src/components/icons/SVG/view-grid.svg

<!-- Generated by IcoMoon.io -->
<svg version="1.1" xmlns="http://www.w3.org/2000/svg" width="37" height="32" viewBox="0 0 37 32">
<title>view-grid</title>
<path d="M4.617 4h12.923v11.077h-12.923v-11.077zM19.386 4h12.923v11.077h-12.923v-11.077zM19.386 16.923h12.923v11.077h-12.923v-11.077zM4.617 16.923h12.923v11.077h-12.923v-11.077z"></path>
</svg>

<svg xmlns="http://www.w3.org/2000/svg" width="37" height="32"><path d="M4.617 4H17.54v11.077H4.617V4zm14.769 0h12.923v11.077H19.386V4zm0 12.923h12.923V28H19.386V16.923zm-14.769 0H17.54V28H4.617V16.923z"/></svg>
